packages/foundations/assets/icons/functional/images/navigation/more_horizontal.svg

<svg xmlns="http://www.w3.org/2000/svg" width="32" height="32" fill="none"><path fill="#1A1C1F" fill-rule="evenodd" d="M7.324 14.122c-.882.315-1.445 1.263-1.296 2.182.262 1.61 2.225 2.25 3.376 1.1a1.99 1.99 0 0 0-.546-3.204c-.389-.19-1.115-.227-1.534-.078m8 0c-.882.315-1.445 1.263-1.296 2.182.262 1.61 2.225 2.25 3.376 1.1a1.99 1.99 0 0 0-.546-3.204c-.389-.19-1.115-.227-1.534-.078m8 0c-.882.315-1.445 1.263-1.296 2.182.262 1.61 2.225 2.25 3.376 1.1a1.99 1.99 0 0 0-.546-3.204c-.389-.19-1.115-.227-1.534-.078"/></svg>

<svg width="32" height="32" viewBox="0 0 32 32" fill="none" xmlns="http://www.w3.org/2000/svg"><path d="M7.324 14.122 C 6.442 14.437,5.879 15.385,6.028 16.304 C 6.290 17.914,8.253 18.554,9.404 17.404 C 10.376 16.431,10.099 14.808,8.858 14.200 C 8.469 14.010,7.743 13.973,7.324 14.122 M15.324 14.122 C 14.442 14.437,13.879 15.385,14.028 16.304 C 14.290 17.914,16.253 18.554,17.404 17.404 C 18.376 16.431,18.099 14.808,16.858 14.200 C 16.469 14.010,15.743 13.973,15.324 14.122 M23.324 14.122 C 22.442 14.437,21.879 15.385,22.028 16.304 C 22.290 17.914,24.253 18.554,25.404 17.404 C 26.376 16.431,26.099 14.808,24.858 14.200 C 24.469 14.010,23.743 13.973,23.324 14.122 " fill="#1A1C1F" stroke="none" fill-rule="evenodd"></path></svg>
